symbols/web/lock/materialsymbolssharp/lock_wght200gradN25fill1_24px.svg

<svg xmlns="http://www.w3.org/2000/svg" height="24" width="24"><path d="M5.15 20.85V9.1H8.1V7.125q0-1.625 1.138-2.763Q10.375 3.225 12 3.225t2.762 1.137Q15.9 5.5 15.9 7.125V9.1h2.95v11.75ZM9.025 9.1h5.95V7.125q0-1.225-.862-2.1Q13.25 4.15 12 4.15q-1.225 0-2.1.875t-.875 2.1ZM12 16.425q.6 0 1.025-.425.425-.425.425-1.025 0-.625-.412-1.037-.413-.413-1.038-.413-.6 0-1.025.413-.425.412-.425 1.037 0 .6.413 1.025.412.425 1.037.425Z"/></svg>

<svg xmlns="http://www.w3.org/2000/svg" height="24" width="24"><path d="M5.15 20.85V9.1H8.1V7.125Q8.1 5.5 9.238 4.362Q10.375 3.225 12 3.225Q13.625 3.225 14.762 4.362Q15.9 5.5 15.9 7.125V9.1H18.85V20.85ZM9.025 9.1H14.975V7.125Q14.975 5.9 14.113 5.025Q13.25 4.15 12 4.15Q10.775 4.15 9.9 5.025Q9.025 5.9 9.025 7.125ZM12 16.425Q12.6 16.425 13.025 16Q13.45 15.575 13.45 14.975Q13.45 14.35 13.038 13.938Q12.625 13.525 12 13.525Q11.4 13.525 10.975 13.938Q10.55 14.35 10.55 14.975Q10.55 15.575 10.963 16Q11.375 16.425 12 16.425Z"/></svg>
